X:1909
T:"Getingen"
M:3/4
R:Polska
S:Efter Hans Dalfors
O:Ore, Dalarna
Z:ABC-transkribering av Linus Fredin
L:1/16
K:Am
f2|:e3d ^cde^f ^g2a2|bAc'A a4 =g3g |f2ed ^cdef g2ag|f2ed f2e2 e3f|
e3d ^cde^f ^g2a2|bAc'A a4 g3g |f2ed ^cdef g2ag|1f2ed f2e2 e2f2:|2f2ed f2e2 e2d2||
K:A
|:c3c d2d2 c2e2|e3d BdBG G2A2|c3c d2d2 c3c|dcdf e6d2|
c3c d2d2 c2e2|e3d BdBG G2A2|c3c d2d2 c3c|dcdf e4 a3a|
g2eg f2ed c2BA|GABc B2cB A4:|
(:musicend:)
(:music:)
